!!!Genre:	Sher
!!!Mode:	Freygish
!!!Listening/dance:	dance
!!!:	*C:
!!!One_Mode:	no
**kern
*I"P1
*clefG2
*k[b-e-a-]
*G:frey
*M2/4
*>A
=1
8bnL
8ccJ
4dd
=2
8ffL
8ee-J
4dd
=3
(8qee-/
8ddL)
8ccJ
4bn
=4
(8qcc/
8bnL)
8a-J
4g
=5
8bnL
8ccJ
4dd
=6
8.ee-L
16ddJk
12ee-L
12dd
12ccJ
=7
2dd
=8
2gg
=9
8bnL
8ccJ
4dd
=10
8ffL
8ee-J
4dd
=11
(8qee-/
8ddL)
8ccJ
4bn
=12
(8qcc/
8bnL)
8a-J
4g
=13
(8.a-L
16gJk)
(8.a-L
16gJk)
=14
8a-L
8cc
8bn
8a-J
=15
2g
=16
2gg
=17||
*>B
*k[]
*>bM
*C:
!LO:TX:a:i:t=C-major
8ccL
8dd
8ee
8ffJ
=18
8eeL
16ffL
16eeJ
8dd
8ccJ
=19
8ddL
16eeL
16ddJ
8cc
8bJ
=20
4cc
4g
=21
(8ccL
8dd)
8ee
8ffJ
=22
8eeL
16ffL
16eeJ
8dd
8ccJ
=23
8ggL
8gg
8ff#X
8aaJ
=24
4.gg
8g
=25
8ccL
8dd
8ee
8ffJ
=26
8eeL
16ffL
16eeJ
8dd
8ccJ
=27
8ddL
16eeL
16ddJ
8cc
8bXJ
=28
2cc
*>eM
*>bM
*D:frey
!LO:TX:a:i:t=D-freygish
=29
8.ee-XL
16ddk
8.ee-
16ddJk
=30
8ee-XL
8gg
8ff#X
8ee-J
=31
2dd
=32
4gg
4r
*>eM
*G:frey
=33||
*>C
*k[b-e-a-]
!LO:TX:a:i:t=G-freygish
8.ee-L
16ddJk
12ee-L
12dd
12ccJ
=34
8.ccL
16bnJk
12ccL
12bn
12a-J
=35
8.a-L
16gJk
12a-L
12g
12fJ
=36
2f
=37
8.a-L
16gk
8.a-
16gJk
=38
8a-L
8cc
8bn
8a-J
=39
2g
=40
2g
==
*-
